X: 8659
T: Cross, The
R: reel
M: 4/4
K: Dmixolydian
fage d2 d2|ABAF D3 f|gfed c2 c2|1 EDEF G2 e2:|2 EDEF G3 A||
B2 BG AFAF|B2 BG A3 A|B2 BG AFAD|EDEF G3 D|
FGAc BGBG|AFAF d4|FGAc BGBG|AFAF G3 A||
defg afde|fdfg a2 fe|defg afdf|
ecef g2 ge|defg afde|fdfg a2 ag||

